!!!OTL: Der Schlaftrunk.
!!!ARE: Europa, Mitteleuropa, Deutschland
!!!SCT: A0344
!!!TXL: @@GMH
!!!YEM: Copyright 1995, estate of Helmut Schaffrath.
**kern	**text
*M4/2	*
*met(c|)	*
*clefC3	*
*k[b-]	*
*F:ion	*
!LO:TX:a:t=jon. F.	!
{1c	Nun
=1	=1
2c	heb
2c	ich
2d	an
2c	ʒu
=2	=2
1B-	ſin-
2B-	-genn
2d	aus
=3	=3
2c/	fri-
2A	-ſchem
2B-	frei-
2G	-en
=4	=4
1F}	mut,}
{1c	Ich
=5	=5
2c	hoff
2c	es
2d	ſol
2c	mir
=6	=6
1B-	glin-
2B-	-gen
2d	ein
=7	=7
2c/	lied-
2A	-lein
2B-	kurʒ
2G	und
=8	=8
1F}	gut,}
{2r	.
2B-	Das
=9	=9
2B-	ſchafft
2B-	der
1.G	e-
=10	=10
.	.
2A	-del
2B-	re-
2B-	-ben-
=11	=11
1G	-ſaft,
2r}	.
{2A	red
=12	=12
1F	ich
2F	on
*lig	*
2.F	al-
=13	=13
.	.
4G	.
2A	.
*Xlig	*
1G	-len
=14	=14
1F	ſcherʒ,
2r}	.
{2f	gibt
=15	=15
2f	mei-
2e	-nen
1d	her-
=16	=16
1c	-ʒen
1A	ein
=17	=17
*lig	*
2B-	gro-
2c/	.
2d/	.
*Xlig	*
2B-	-ße
=18	=18
1A}	kraft,
{2r	.
2B-	Das
=19	=19
2B-	ſchafft
2B-	der
1.G	e-
=20	=20
.	.
2A	-del
2B-	re-
2B-	-ben-
=21	=21
1G	-ſaft,
2r}	.
{2A	red
=22	=22
1F	ich
2F	on
*lig	*
2.F	al-
=23	=23
.	.
4G	.
2A	.
*Xlig	*
1G	-len
=24	=24
1F	ſcherʒ,
2r}	.
{2f	gibt
=25	=25
2f	mei-
2e	-nen
1d	her-
=26	=26
1c	-ʒen
1A	ein
=27	=27
*lig	*
2B-	gro-
2c/	.
2d/	.
*Xlig	*
2B-	-ße
=28	=28
0A}	kraft,
=29	=29
{1c	frewt
2c	mir
2A	mein
=30	=30
*lig	*
2B-	traw-
2A	.
*Xlig	*
1G	-rigs
=31	=31
1F/ll}	herʒ.
==	==
!!!GTL: Trink. und Zechlieder, incl. Fastnacht- u. Martinslieder
!!!AGN: Romanze, Ballade, Lied, Trinklied
!! Freih. von Winnenbergs Reuterlieder. Strassburg 1582 No. 33.
!!!ONB: ESAC (Essen Associative Code) Database: ALTDEU
!!!AMT: simple quadruple
!!!AIN: vox
!!!EED: Helmut Schaffrath
!!!EEV: 1.0
!!!RDF**kern: l = terminal long
!!!AMD: Ionian
!!!URL-scan: https://rosdok.uni-rostock.de/mcrviewer/recordIdentifier/rosdok_ppn738218359/iview2/phys_0487.iview2?x=-495.6391625615763&y=44.498029571026564&scale=0.4629418472063854&rotation=0&layout=singlePageLayout&logicalDiv=log_0013
!!!ENC: Anna Maria Matuszewska
!!!EEV: 2024/13/03
*-	*-
